X:1
T:Standin In The Need of Prayer
T:Down By The River
T:Copyright 1918 by Homer A. Rodeheaver
T:Rodeheaver's Plantation Melodies
T:Rodeheaver's Plantation Melodies
Z:Rodeheaver's Plantation Melodies
%%score [ 1 2 3 4 ]
L:1/8
Q:1/4=100
M:4/4
K:D
V:1 treble nm="Soprano" snm="S."
V:2 treble nm="Alto" snm="A."
V:3 bass nm="Tenor" snm="T."
V:4 bass nm="Bass" snm="B."
V:1
 A | A/-A/A/-A/ AA/-A/ AF D2 | E2 E>E F A2 | A | AAAA AF D2 | EE/E/ F<E D2 |"^CHORUS" BA | %7
w: Oh,|hal- * le- * lu- jah- * to the Lamb,|Down by the riv- er;|The|Lord id on the giv- ing hand,|Down by the riv- er side.|Oh, we'll|
 A3 B AF D2 | E2 E>E F A2 | A | A3 B AF D2 | EE/E/ F<E D3 :| %12
w: wait till Je- sus comes,|Down by the riv- er,|We'll|wait till Je- sus comes|Down by the riv- er side.|
V:2
 A | A/-A/A/-A/ AA/-A/ AF D2 | C2 C>C D F2 | A | AAAA AF D2 | CC/C/ D<C D2 | FF | F3 F FD D2 | %8
 C2 C>C D F2 | F | F3 F FD D2 | CC/C/ D<C D3 :| %12
V:3
 z | z8 | A,2 A,>A, A, D2 | z | z8 | A,A,/A,/ A,<G, F,2 | DD | D3 D DA, F,2 | A,2 A,>A, A, D2 | D | %10
 D3 D DA, F,2 | A,A,/A,/ A,<G, F,3 :| %12
V:4
 z | z8 | A,,2 A,,>A,, D, D,2 | z | z8 | A,,A,,/A,,/ A,,<A,, D,2 | D,D, | D,3 D, D,D, D,2 | %8
 A,,2 A,,>A,, D, D,2 | %9
"_1. Oh, halelujah to the Lamb, Down by the river; The Lord is on the giving hand, Down by the river side.\n\n2. Oh, we are pilgrims here below, Down by the river; Oh, soon to glory we will go, Down by the river side.\n\n3. Oh, little did I think that He was do nigh, Down by the river; He spake, and made me laugh and cry, \n    Down by the river side." D, | %10
 D,3 D, D,D, D,2 | A,,A,,/A,,/ A,,<A,, D,3 :| %12

